images/3235434.svg

<?xml version="1.0" encoding="UTF-8"?>
<svg xmlns="http://www.w3.org/2000/svg" xmlns:xlink="http://www.w3.org/1999/xlink" width="300pt" height="300pt" viewBox="0 0 300 300" version="1.1">
<defs>
<g>
<symbol overflow="visible" id="glyph0-0">
<path style="stroke:none;" d="M 0.546875 1.9375 L 0.546875 -7.75 L 6.046875 -7.75 L 6.046875 1.9375 Z M 1.171875 1.328125 L 5.4375 1.328125 L 5.4375 -7.140625 L 1.171875 -7.140625 Z M 1.171875 1.328125 "/>
</symbol>
<symbol overflow="visible" id="glyph0-1">
<path style="stroke:none;" d="M 1.078125 -8.015625 L 2.546875 -8.015625 L 6.09375 -1.3125 L 6.09375 -8.015625 L 7.15625 -8.015625 L 7.15625 0 L 5.6875 0 L 2.125 -6.703125 L 2.125 0 L 1.078125 0 Z M 1.078125 -8.015625 "/>
</symbol>
<symbol overflow="visible" id="glyph0-2">
<path style="stroke:none;" d="M 4.328125 -7.28125 C 3.546875 -7.28125 2.921875 -6.984375 2.453125 -6.390625 C 1.992188 -5.804688 1.765625 -5.007812 1.765625 -4 C 1.765625 -2.988281 1.992188 -2.1875 2.453125 -1.59375 C 2.921875 -1.007812 3.546875 -0.71875 4.328125 -0.71875 C 5.117188 -0.71875 5.742188 -1.007812 6.203125 -1.59375 C 6.660156 -2.1875 6.890625 -2.988281 6.890625 -4 C 6.890625 -5.007812 6.660156 -5.804688 6.203125 -6.390625 C 5.742188 -6.984375 5.117188 -7.28125 4.328125 -7.28125 Z M 4.328125 -8.171875 C 5.453125 -8.171875 6.351562 -7.789062 7.03125 -7.03125 C 7.707031 -6.28125 8.046875 -5.269531 8.046875 -4 C 8.046875 -2.738281 7.707031 -1.726562 7.03125 -0.96875 C 6.351562 -0.21875 5.453125 0.15625 4.328125 0.15625 C 3.203125 0.15625 2.300781 -0.21875 1.625 -0.96875 C 0.957031 -1.71875 0.625 -2.726562 0.625 -4 C 0.625 -5.269531 0.957031 -6.28125 1.625 -7.03125 C 2.300781 -7.789062 3.203125 -8.171875 4.328125 -8.171875 Z M 4.328125 -8.171875 "/>
</symbol>
</g>
</defs>
<g id="surface53465">
<rect x="0" y="0" width="300" height="300" style="fill:rgb(100%,100%,100%);fill-opacity:1;stroke:none;"/>
<path style="fill:none;stroke-width:1.2;stroke-linecap:butt;stroke-linejoin:miter;stroke:rgb(0%,0%,0%);stroke-opacity:1;stroke-miterlimit:10;" d="M 35.25 147.65625 L 55.363281 131.691406 "/>
<path style="fill:none;stroke-width:1.2;stroke-linecap:butt;stroke-linejoin:miter;stroke:rgb(0%,0%,0%);stroke-opacity:1;stroke-miterlimit:10;" d="M 55.363281 131.691406 L 80.101562 138.578125 "/>
<path style="fill:none;stroke-width:1.2;stroke-linecap:butt;stroke-linejoin:miter;stroke:rgb(0%,0%,0%);stroke-opacity:1;stroke-miterlimit:10;" d="M 59.457031 126.558594 L 79.25 132.070312 "/>
<path style="fill:none;stroke-width:1.2;stroke-linecap:butt;stroke-linejoin:miter;stroke:rgb(100%,0%,0%);stroke-opacity:1;stroke-miterlimit:10;" d="M 54.269531 106.035156 L 54.816406 118.863281 "/>
<path style="fill:none;stroke-width:1.2;stroke-linecap:butt;stroke-linejoin:miter;stroke:rgb(0%,0%,0%);stroke-opacity:1;stroke-miterlimit:10;" d="M 54.816406 118.863281 L 55.363281 131.691406 "/>
<path style="fill:none;stroke-width:1.2;stroke-linecap:butt;stroke-linejoin:miter;stroke:rgb(0%,0%,0%);stroke-opacity:1;stroke-miterlimit:10;" d="M 80.101562 138.578125 L 94.296875 117.179688 "/>
<path style="fill:none;stroke-width:1.2;stroke-linecap:butt;stroke-linejoin:miter;stroke:rgb(0%,0%,0%);stroke-opacity:1;stroke-miterlimit:10;" d="M 80.101562 138.578125 L 89.070312 162.640625 "/>
<path style="fill:none;stroke-width:1.2;stroke-linecap:butt;stroke-linejoin:miter;stroke:rgb(0%,0%,0%);stroke-opacity:1;stroke-miterlimit:10;" d="M 94.296875 117.179688 L 86.3125 107.125 "/>
<path style="fill:none;stroke-width:1.2;stroke-linecap:butt;stroke-linejoin:miter;stroke:rgb(0%,0%,100%);stroke-opacity:1;stroke-miterlimit:10;" d="M 86.3125 107.125 L 78.332031 97.066406 "/>
<path style="fill:none;stroke-width:1.2;stroke-linecap:butt;stroke-linejoin:miter;stroke:rgb(0%,0%,0%);stroke-opacity:1;stroke-miterlimit:10;" d="M 87.96875 118.925781 L 81.582031 110.878906 "/>
<path style="fill:none;stroke-width:1.2;stroke-linecap:butt;stroke-linejoin:miter;stroke:rgb(0%,0%,100%);stroke-opacity:1;stroke-miterlimit:10;" d="M 81.582031 110.878906 L 75.195312 102.835938 "/>
<path style="fill:none;stroke-width:1.2;stroke-linecap:butt;stroke-linejoin:miter;stroke:rgb(0%,0%,0%);stroke-opacity:1;stroke-miterlimit:10;" d="M 94.296875 117.179688 L 119.953125 116.085938 "/>
<path style="fill:none;stroke-width:1.2;stroke-linecap:butt;stroke-linejoin:miter;stroke:rgb(0%,0%,100%);stroke-opacity:1;stroke-miterlimit:10;" d="M 78.332031 97.066406 L 66.300781 101.550781 "/>
<path style="fill:none;stroke-width:1.2;stroke-linecap:butt;stroke-linejoin:miter;stroke:rgb(100%,0%,0%);stroke-opacity:1;stroke-miterlimit:10;" d="M 66.300781 101.550781 L 54.269531 106.035156 "/>
<path style=" stroke:none;fill-rule:nonzero;fill:rgb(100%,100%,100%);fill-opacity:1;" d="M 74.332031 90.566406 L 82.332031 90.566406 L 82.332031 103.566406 L 74.332031 103.566406 Z M 74.332031 90.566406 "/>
<g style="fill:rgb(0%,0%,100%);fill-opacity:1;">
  <use xlink:href="#glyph0-1" x="74.332031" y="100.467773"/>
</g>
<path style=" stroke:none;fill-rule:nonzero;fill:rgb(100%,100%,100%);fill-opacity:1;" d="M 50.269531 99.535156 L 59.269531 99.535156 L 59.269531 112.535156 L 50.269531 112.535156 Z M 50.269531 99.535156 "/>
<g style="fill:rgb(100%,0%,0%);fill-opacity:1;">
  <use xlink:href="#glyph0-2" x="50.269531" y="109.436523"/>
</g>
<path style="fill:none;stroke-width:1.2;stroke-linecap:butt;stroke-linejoin:miter;stroke:rgb(0%,0%,0%);stroke-opacity:1;stroke-miterlimit:10;" d="M 86.742188 160.71875 L 78.566406 170.617188 "/>
<path style="fill:none;stroke-width:1.2;stroke-linecap:butt;stroke-linejoin:miter;stroke:rgb(100%,0%,0%);stroke-opacity:1;stroke-miterlimit:10;" d="M 78.566406 170.617188 L 70.386719 180.515625 "/>
<path style="fill:none;stroke-width:1.2;stroke-linecap:butt;stroke-linejoin:miter;stroke:rgb(0%,0%,0%);stroke-opacity:1;stroke-miterlimit:10;" d="M 91.398438 164.566406 L 83.222656 174.464844 "/>
<path style="fill:none;stroke-width:1.2;stroke-linecap:butt;stroke-linejoin:miter;stroke:rgb(100%,0%,0%);stroke-opacity:1;stroke-miterlimit:10;" d="M 83.222656 174.464844 L 75.046875 184.363281 "/>
<path style="fill:none;stroke-width:1.2;stroke-linecap:butt;stroke-linejoin:miter;stroke:rgb(0%,0%,0%);stroke-opacity:1;stroke-miterlimit:10;" d="M 89.070312 162.640625 L 101.734375 164.773438 "/>
<path style="fill:none;stroke-width:1.2;stroke-linecap:butt;stroke-linejoin:miter;stroke:rgb(0%,0%,100%);stroke-opacity:1;stroke-miterlimit:10;" d="M 101.734375 164.773438 L 114.394531 166.90625 "/>
<path style=" stroke:none;fill-rule:nonzero;fill:rgb(100%,100%,100%);fill-opacity:1;" d="M 63.714844 175.941406 L 72.714844 175.941406 L 72.714844 188.941406 L 63.714844 188.941406 Z M 63.714844 175.941406 "/>
<g style="fill:rgb(100%,0%,0%);fill-opacity:1;">
  <use xlink:href="#glyph0-2" x="63.714844" y="185.842773"/>
</g>
<path style="fill:none;stroke-width:1.2;stroke-linecap:butt;stroke-linejoin:miter;stroke:rgb(0%,0%,100%);stroke-opacity:1;stroke-miterlimit:10;" d="M 114.394531 166.90625 L 118.878906 178.9375 "/>
<path style="fill:none;stroke-width:1.2;stroke-linecap:butt;stroke-linejoin:miter;stroke:rgb(0%,0%,0%);stroke-opacity:1;stroke-miterlimit:10;" d="M 118.878906 178.9375 L 123.363281 190.96875 "/>
<path style="fill:none;stroke-width:1.2;stroke-linecap:butt;stroke-linejoin:miter;stroke:rgb(0%,0%,0%);stroke-opacity:1;stroke-miterlimit:10;" d="M 130.75 147.109375 L 122.570312 157.007812 "/>
<path style="fill:none;stroke-width:1.2;stroke-linecap:butt;stroke-linejoin:miter;stroke:rgb(0%,0%,100%);stroke-opacity:1;stroke-miterlimit:10;" d="M 122.570312 157.007812 L 114.394531 166.90625 "/>
<path style=" stroke:none;fill-rule:nonzero;fill:rgb(100%,100%,100%);fill-opacity:1;" d="M 110.394531 160.40625 L 118.394531 160.40625 L 118.394531 173.40625 L 110.394531 173.40625 Z M 110.394531 160.40625 "/>
<g style="fill:rgb(0%,0%,100%);fill-opacity:1;">
  <use xlink:href="#glyph0-1" x="110.394531" y="170.307617"/>
</g>
<path style="fill:none;stroke-width:1.2;stroke-linecap:butt;stroke-linejoin:miter;stroke:rgb(0%,0%,0%);stroke-opacity:1;stroke-miterlimit:10;" d="M 123.363281 190.96875 L 148.6875 195.234375 "/>
<path style="fill:none;stroke-width:1.2;stroke-linecap:butt;stroke-linejoin:miter;stroke:rgb(0%,0%,0%);stroke-opacity:1;stroke-miterlimit:10;" d="M 148.6875 195.234375 L 165.039062 175.433594 "/>
<path style="fill:none;stroke-width:1.2;stroke-linecap:butt;stroke-linejoin:miter;stroke:rgb(0%,0%,0%);stroke-opacity:1;stroke-miterlimit:10;" d="M 165.039062 175.433594 L 174.007812 199.496094 "/>
<path style="fill:none;stroke-width:1.2;stroke-linecap:butt;stroke-linejoin:miter;stroke:rgb(0%,0%,0%);stroke-opacity:1;stroke-miterlimit:10;" d="M 165.039062 175.433594 L 156.070312 151.371094 "/>
<path style="fill:none;stroke-width:1.2;stroke-linecap:butt;stroke-linejoin:miter;stroke:rgb(0%,0%,0%);stroke-opacity:1;stroke-miterlimit:10;" d="M 181.394531 155.636719 L 165.039062 175.433594 "/>
<path style="fill:none;stroke-width:1.2;stroke-linecap:butt;stroke-linejoin:miter;stroke:rgb(0%,0%,0%);stroke-opacity:1;stroke-miterlimit:10;" d="M 174.007812 199.496094 L 199.332031 203.761719 "/>
<path style="fill:none;stroke-width:1.2;stroke-linecap:butt;stroke-linejoin:miter;stroke:rgb(0%,0%,0%);stroke-opacity:1;stroke-miterlimit:10;" d="M 199.332031 203.761719 L 215.6875 183.960938 "/>
<path style="fill:none;stroke-width:1.2;stroke-linecap:butt;stroke-linejoin:miter;stroke:rgb(0%,0%,0%);stroke-opacity:1;stroke-miterlimit:10;" d="M 215.6875 183.960938 L 211.203125 171.929688 "/>
<path style="fill:none;stroke-width:1.2;stroke-linecap:butt;stroke-linejoin:miter;stroke:rgb(0%,0%,100%);stroke-opacity:1;stroke-miterlimit:10;" d="M 211.203125 171.929688 L 206.71875 159.898438 "/>
<path style="fill:none;stroke-width:1.2;stroke-linecap:butt;stroke-linejoin:miter;stroke:rgb(0%,0%,100%);stroke-opacity:1;stroke-miterlimit:10;" d="M 206.71875 159.898438 L 194.054688 157.765625 "/>
<path style="fill:none;stroke-width:1.2;stroke-linecap:butt;stroke-linejoin:miter;stroke:rgb(0%,0%,0%);stroke-opacity:1;stroke-miterlimit:10;" d="M 194.054688 157.765625 L 181.394531 155.636719 "/>
<path style="fill:none;stroke-width:1.2;stroke-linecap:butt;stroke-linejoin:miter;stroke:rgb(0%,0%,100%);stroke-opacity:1;stroke-miterlimit:10;" d="M 206.71875 159.898438 L 214.894531 150 "/>
<path style="fill:none;stroke-width:1.2;stroke-linecap:butt;stroke-linejoin:miter;stroke:rgb(0%,0%,0%);stroke-opacity:1;stroke-miterlimit:10;" d="M 214.894531 150 L 223.074219 140.101562 "/>
<path style=" stroke:none;fill-rule:nonzero;fill:rgb(100%,100%,100%);fill-opacity:1;" d="M 202.71875 153.398438 L 210.71875 153.398438 L 210.71875 166.398438 L 202.71875 166.398438 Z M 202.71875 153.398438 "/>
<g style="fill:rgb(0%,0%,100%);fill-opacity:1;">
  <use xlink:href="#glyph0-1" x="202.71875" y="163.299805"/>
</g>
<path style="fill:none;stroke-width:1.2;stroke-linecap:butt;stroke-linejoin:miter;stroke:rgb(0%,0%,0%);stroke-opacity:1;stroke-miterlimit:10;" d="M 223.074219 140.101562 L 248.394531 144.363281 "/>
<path style="fill:none;stroke-width:1.2;stroke-linecap:butt;stroke-linejoin:miter;stroke:rgb(0%,0%,0%);stroke-opacity:1;stroke-miterlimit:10;" d="M 226.609375 134.570312 L 246.867188 137.980469 "/>
<path style="fill:none;stroke-width:1.2;stroke-linecap:butt;stroke-linejoin:miter;stroke:rgb(0%,0%,0%);stroke-opacity:1;stroke-miterlimit:10;" d="M 214.105469 116.039062 L 223.074219 140.101562 "/>
<path style="fill:none;stroke-width:1.2;stroke-linecap:butt;stroke-linejoin:miter;stroke:rgb(0%,0%,0%);stroke-opacity:1;stroke-miterlimit:10;" d="M 248.394531 144.363281 L 264.75 124.566406 "/>
<path style="fill:none;stroke-width:1.2;stroke-linecap:butt;stroke-linejoin:miter;stroke:rgb(0%,0%,0%);stroke-opacity:1;stroke-miterlimit:10;" d="M 264.75 124.566406 L 260.265625 112.535156 "/>
<path style="fill:none;stroke-width:1.2;stroke-linecap:butt;stroke-linejoin:miter;stroke:rgb(0%,0%,100%);stroke-opacity:1;stroke-miterlimit:10;" d="M 260.265625 112.535156 L 255.78125 100.503906 "/>
<path style="fill:none;stroke-width:1.2;stroke-linecap:butt;stroke-linejoin:miter;stroke:rgb(0%,0%,0%);stroke-opacity:1;stroke-miterlimit:10;" d="M 258.191406 124.269531 L 254.605469 114.644531 "/>
<path style="fill:none;stroke-width:1.2;stroke-linecap:butt;stroke-linejoin:miter;stroke:rgb(0%,0%,100%);stroke-opacity:1;stroke-miterlimit:10;" d="M 254.605469 114.644531 L 251.015625 105.019531 "/>
<path style="fill:none;stroke-width:1.2;stroke-linecap:butt;stroke-linejoin:miter;stroke:rgb(0%,0%,100%);stroke-opacity:1;stroke-miterlimit:10;" d="M 255.78125 100.503906 L 243.121094 98.371094 "/>
<path style="fill:none;stroke-width:1.2;stroke-linecap:butt;stroke-linejoin:miter;stroke:rgb(0%,0%,0%);stroke-opacity:1;stroke-miterlimit:10;" d="M 243.121094 98.371094 L 230.457031 96.238281 "/>
<path style=" stroke:none;fill-rule:nonzero;fill:rgb(100%,100%,100%);fill-opacity:1;" d="M 251.78125 94.003906 L 259.78125 94.003906 L 259.78125 107.003906 L 251.78125 107.003906 Z M 251.78125 94.003906 "/>
<g style="fill:rgb(0%,0%,100%);fill-opacity:1;">
  <use xlink:href="#glyph0-1" x="251.78125" y="103.905273"/>
</g>
<path style="fill:none;stroke-width:1.2;stroke-linecap:butt;stroke-linejoin:miter;stroke:rgb(0%,0%,0%);stroke-opacity:1;stroke-miterlimit:10;" d="M 230.457031 96.238281 L 214.105469 116.039062 "/>
<path style="fill:none;stroke-width:1.2;stroke-linecap:butt;stroke-linejoin:miter;stroke:rgb(0%,0%,0%);stroke-opacity:1;stroke-miterlimit:10;" d="M 233.480469 102.066406 L 220.398438 117.90625 "/>
<path style="fill:none;stroke-width:1.2;stroke-linecap:butt;stroke-linejoin:miter;stroke:rgb(0%,0%,0%);stroke-opacity:1;stroke-miterlimit:10;" d="M 156.070312 151.371094 L 130.75 147.109375 "/>
</g>
</svg>

<svg xmlns="http://www.w3.org/2000/svg" xmlns:xlink="http://www.w3.org/1999/xlink" width="300pt" height="300pt" viewBox="0 0 300 300"><defs><symbol overflow="visible"><path d="M.547 1.938V-7.75h5.5v9.688zm.625-.61h4.266v-8.47H1.171zm0 0"/></symbol><symbol overflow="visible" id="a"><path d="M1.078-8.016h1.47l3.546 6.704v-6.704h1.062V0H5.688L2.124-6.703V0H1.078zm0 0"/></symbol><symbol overflow="visible" id="b"><path d="M4.328-7.28c-.78 0-1.406.296-1.875.89-.46.585-.687 1.382-.687 2.39 0 1.012.226 1.813.687 2.406.47.586 1.094.875 1.875.875.79 0 1.414-.288 1.875-.874.457-.593.688-1.394.688-2.406 0-1.008-.23-1.805-.687-2.39-.46-.594-1.086-.89-1.875-.89zm0-.892c1.125 0 2.024.383 2.703 1.14C7.708-6.28 8.048-5.27 8.048-4c0 1.262-.34 2.273-1.016 3.03C6.353-.22 5.454.157 4.33.157S2.3-.22 1.625-.97c-.668-.75-1-1.757-1-3.03 0-1.27.332-2.28 1-3.03.676-.76 1.578-1.142 2.703-1.142zm0 0"/></symbol></defs><g><path fill="#fff" d="M0 0h300v300H0z"/><path d="M35.25 147.656l20.113-15.965M55.363 131.69l24.74 6.888M59.457 126.56l19.793 5.51" stroke-width="1.2" stroke="#000" stroke-miterlimit="10" fill="none"/><path d="M54.27 106.035l.546 12.828" stroke-width="1.2" stroke="#f00" stroke-miterlimit="10" fill="none"/><path d="M54.816 118.863l.547 12.828M80.102 138.578l14.195-21.398M80.102 138.578l8.968 24.063M94.297 117.18l-7.984-10.055" stroke-width="1.2" stroke="#000" stroke-miterlimit="10" fill="none"/><path d="M86.313 107.125l-7.98-10.06" stroke-width="1.2" stroke="#00f" stroke-miterlimit="10" fill="none"/><path d="M87.97 118.926l-6.388-8.047" stroke-width="1.2" stroke="#000" stroke-miterlimit="10" fill="none"/><path d="M81.582 110.88l-6.387-8.044" stroke-width="1.2" stroke="#00f" stroke-miterlimit="10" fill="none"/><path d="M94.297 117.18l25.656-1.094" stroke-width="1.2" stroke="#000" stroke-miterlimit="10" fill="none"/><path d="M78.332 97.066l-12.03 4.485" stroke-width="1.2" stroke="#00f" stroke-miterlimit="10" fill="none"/><path d="M66.3 101.55l-12.03 4.485" stroke-width="1.2" stroke="#f00" stroke-miterlimit="10" fill="none"/><path d="M74.332 90.566h8v13h-8zm0 0" fill="#fff"/><use xlink:href="#a" x="74.332" y="100.468" fill="#00f"/><path d="M50.27 99.535h9v13h-9zm0 0" fill="#fff"/><use xlink:href="#b" x="50.27" y="109.437" fill="#f00"/><path d="M86.742 160.72l-8.176 9.897" stroke-width="1.2" stroke="#000" stroke-miterlimit="10" fill="none"/><path d="M78.566 170.617l-8.18 9.9" stroke-width="1.2" stroke="#f00" stroke-miterlimit="10" fill="none"/><path d="M91.398 164.566l-8.175 9.9" stroke-width="1.2" stroke="#000" stroke-miterlimit="10" fill="none"/><path d="M83.223 174.465l-8.176 9.898" stroke-width="1.2" stroke="#f00" stroke-miterlimit="10" fill="none"/><path d="M89.07 162.64l12.664 2.133" stroke-width="1.2" stroke="#000" stroke-miterlimit="10" fill="none"/><path d="M101.734 164.773l12.66 2.133" stroke-width="1.2" stroke="#00f" stroke-miterlimit="10" fill="none"/><path d="M63.715 175.94h9v13h-9zm0 0" fill="#fff"/><use xlink:href="#b" x="63.715" y="185.843" fill="#f00"/><path d="M114.395 166.906l4.484 12.03" stroke-width="1.2" stroke="#00f" stroke-miterlimit="10" fill="none"/><path d="M118.88 178.938l4.483 12.03M130.75 147.11l-8.18 9.898" stroke-width="1.2" stroke="#000" stroke-miterlimit="10" fill="none"/><path d="M122.57 157.008l-8.175 9.898" stroke-width="1.2" stroke="#00f" stroke-miterlimit="10" fill="none"/><path d="M110.395 160.406h8v13h-8zm0 0" fill="#fff"/><use xlink:href="#a" x="110.395" y="170.308" fill="#00f"/><path d="M123.363 190.97l25.325 4.264M148.688 195.234l16.35-19.8M165.04 175.434l8.968 24.062M165.04 175.434l-8.97-24.063M181.395 155.637l-16.356 19.797M174.008 199.496l25.324 4.266M199.332 203.762l16.356-19.8M215.688 183.96l-4.485-12.03" stroke-width="1.2" stroke="#000" stroke-miterlimit="10" fill="none"/><path d="M211.203 171.93l-4.484-12.032M206.72 159.898l-12.665-2.132" stroke-width="1.2" stroke="#00f" stroke-miterlimit="10" fill="none"/><path d="M194.055 157.766l-12.66-2.13" stroke-width="1.2" stroke="#000" stroke-miterlimit="10" fill="none"/><path d="M206.72 159.898l8.175-9.898" stroke-width="1.2" stroke="#00f" stroke-miterlimit="10" fill="none"/><path d="M214.895 150l8.18-9.898" stroke-width="1.2" stroke="#000" stroke-miterlimit="10" fill="none"/><path d="M202.72 153.398h8v13h-8zm0 0" fill="#fff"/><use xlink:href="#a" x="202.719" y="163.3" fill="#00f"/><path d="M223.074 140.102l25.32 4.26M226.61 134.57l20.257 3.41M214.105 116.04l8.97 24.062M248.395 144.363l16.355-19.797M264.75 124.566l-4.484-12.03" stroke-width="1.2" stroke="#000" stroke-miterlimit="10" fill="none"/><path d="M260.266 112.535l-4.485-12.03" stroke-width="1.2" stroke="#00f" stroke-miterlimit="10" fill="none"/><path d="M258.19 124.27l-3.585-9.625" stroke-width="1.2" stroke="#000" stroke-miterlimit="10" fill="none"/><path d="M254.605 114.645l-3.59-9.625M255.78 100.504l-12.66-2.133" stroke-width="1.2" stroke="#00f" stroke-miterlimit="10" fill="none"/><path d="M243.12 98.37l-12.663-2.132" stroke-width="1.2" stroke="#000" stroke-miterlimit="10" fill="none"/><path d="M251.78 94.004h8v13h-8zm0 0" fill="#fff"/><use xlink:href="#a" x="251.781" y="103.905" fill="#00f"/><path d="M230.457 96.238l-16.352 19.8M233.48 102.066l-13.082 15.84M156.07 151.37l-25.32-4.26" stroke-width="1.2" stroke="#000" stroke-miterlimit="10" fill="none"/></g></svg>
